src/beethovenx/assets/images/discord.svg

<svg width="24" height="24" viewBox="0 0 24 24" fill="none" xmlns="http://www.w3.org/2000/svg">
<g clip-path="url(#clip0_782_111)">
<path d="M20.317 4.36997C18.761 3.65574 17.119 3.14642 15.4319 2.85477C15.4166 2.85191 15.4007 2.85396 15.3867 2.86062C15.3726 2.86728 15.3609 2.87822 15.3534 2.89187C15.1424 3.26717 14.9087 3.75667 14.7451 4.14137C12.9004 3.86517 11.0651 3.86517 9.2583 4.14137C9.0947 3.74807 8.8525 3.26717 8.6406 2.89187C8.63276 2.87853 8.62107 2.86786 8.60706 2.86126C8.59306 2.85466 8.57739 2.85243 8.5621 2.85487C6.87488 3.14584 5.2327 3.65511 3.6769 4.36987C3.66359 4.37556 3.65238 4.38524 3.6448 4.39757C0.533404 9.04597 -0.318996 13.5801 0.099204 18.058C0.100386 18.0689 0.103757 18.0796 0.109116 18.0892C0.114476 18.0988 0.121714 18.1073 0.130404 18.1141C2.1832 19.6217 4.1717 20.5369 6.1233 21.1435C6.13848 21.148 6.15468 21.1478 6.16972 21.1429C6.18477 21.1379 6.19795 21.1285 6.2075 21.1159C6.6691 20.4855 7.0806 19.8207 7.4335 19.1217C7.43835 19.1121 7.44112 19.1016 7.44163 19.0909C7.44213 19.0802 7.44036 19.0695 7.43643 19.0595C7.4325 19.0495 7.4265 19.0405 7.41883 19.033C7.41115 19.0255 7.40198 19.0197 7.3919 19.016C6.7391 18.7684 6.1176 18.4665 5.5197 18.1237C5.5088 18.1173 5.49964 18.1083 5.49304 18.0975C5.48643 18.0867 5.48258 18.0745 5.48183 18.0619C5.48108 18.0492 5.48345 18.0366 5.48873 18.0251C5.49401 18.0136 5.50204 18.0036 5.5121 17.996C5.6379 17.9017 5.7638 17.8037 5.8839 17.7046C5.89458 17.6958 5.9075 17.6901 5.92121 17.6883C5.93492 17.6864 5.94887 17.6884 5.9615 17.6941C9.8893 19.4874 14.1415 19.4874 18.0229 17.6941C18.0355 17.6881 18.0496 17.6858 18.0635 17.6874C18.0774 17.6891 18.0906 17.6947 18.1014 17.7036C18.2216 17.8026 18.3474 17.9017 18.4742 17.996C18.4843 18.0035 18.4924 18.0135 18.4977 18.0249C18.5031 18.0364 18.5055 18.0489 18.5049 18.0615C18.5042 18.0741 18.5005 18.0864 18.494 18.0972C18.4875 18.108 18.4784 18.1171 18.4676 18.1236C17.8695 18.4729 17.2429 18.7711 16.5946 19.015C16.5845 19.0188 16.5754 19.0248 16.5678 19.0324C16.5602 19.04 16.5542 19.0492 16.5504 19.0592C16.5466 19.0693 16.5449 19.0801 16.5455 19.0908C16.5461 19.1016 16.549 19.1121 16.5539 19.1217C16.9143 19.8197 17.3258 20.4845 17.7789 21.1149C17.7882 21.1279 17.8013 21.1376 17.8164 21.1428C17.8315 21.1479 17.8478 21.1482 17.8631 21.1435C19.8241 20.5368 21.8126 19.6216 23.8654 18.1141C23.8742 18.1076 23.8816 18.0994 23.887 18.0898C23.8924 18.0803 23.8957 18.0698 23.8967 18.0589C24.3971 12.8819 23.0585 8.38497 20.3482 4.39847C20.3416 4.38552 20.3305 4.37538 20.317 4.36987V4.36997ZM8.02 15.3314C6.8375 15.3314 5.8631 14.2457 5.8631 12.9124C5.8631 11.5792 6.8186 10.4935 8.0201 10.4935C9.2309 10.4935 10.1958 11.5887 10.1769 12.9125C10.1769 14.2457 9.2214 15.3314 8.02 15.3314V15.3314ZM15.9948 15.3314C14.8123 15.3314 13.8379 14.2457 13.8379 12.9124C13.8379 11.5792 14.7933 10.4935 15.9948 10.4935C17.2056 10.4935 18.1705 11.5887 18.1516 12.9125C18.1516 14.2457 17.2056 15.3314 15.9948 15.3314V15.3314Z" fill="white"/>
</g>
<defs>
<clipPath id="clip0_782_111">
<rect width="24" height="24" fill="white"/>
</clipPath>
</defs>
</svg>

<svg width="24" height="24" fill="none" xmlns="http://www.w3.org/2000/svg"><g clip-path="url(#a)"><path d="M20.317 4.37a19.791 19.791 0 0 0-4.885-1.515.074.074 0 0 0-.079.037c-.21.375-.444.865-.608 1.25a18.27 18.27 0 0 0-5.487 0 12.64 12.64 0 0 0-.617-1.25.077.077 0 0 0-.079-.037c-1.687.29-3.33.8-4.885 1.515a.07.07 0 0 0-.032.028C.533 9.046-.32 13.58.099 18.058a.082.082 0 0 0 .031.056 19.9 19.9 0 0 0 5.993 3.03.078.078 0 0 0 .084-.028c.462-.63.874-1.295 1.227-1.994a.076.076 0 0 0-.042-.106 13.107 13.107 0 0 1-1.872-.892.077.077 0 0 1-.008-.128 10.2 10.2 0 0 0 .372-.291.074.074 0 0 1 .077-.01c3.928 1.792 8.18 1.792 12.062 0a.075.075 0 0 1 .078.009c.12.099.246.198.373.292a.076.076 0 0 1 .03.066.078.078 0 0 1-.036.062c-.599.349-1.225.647-1.873.891a.076.076 0 0 0-.045.044.078.078 0 0 0 .004.063c.36.698.772 1.363 1.225 1.993a.077.077 0 0 0 .084.029 19.839 19.839 0 0 0 6.002-3.03.077.077 0 0 0 .032-.055c.5-5.177-.838-9.674-3.549-13.66a.06.06 0 0 0-.031-.03v.001ZM8.02 15.331c-1.182 0-2.157-1.085-2.157-2.419 0-1.333.956-2.419 2.157-2.419 1.21 0 2.176 1.096 2.157 2.42 0 1.333-.956 2.418-2.157 2.418Zm7.975 0c-1.183 0-2.157-1.085-2.157-2.419 0-1.333.955-2.419 2.157-2.419 1.21 0 2.176 1.096 2.157 2.42 0 1.333-.946 2.418-2.157 2.418Z" fill="#fff"/></g><defs><clipPath id="a"><path fill="#fff" d="M0 0h24v24H0z"/></clipPath></defs></svg>
